X:1589
T:Donegal Reel
O:england
M:4/4
L:1/8
C:Trad.
R:Reel
K:D
A,C|:D2DE FEFA|dAFA BFAF|E2EF GFGA|BGAF EGFE|D2DE FEFA|
dAFA dfag|fgec dcdB|1AFGE D2 (3A,B,C:|2(3ABc ec d2 (3ABc||
|:defg fdAd|fdAd f2ed|cBce gfed|cdef g2 (4fgfe|
defg afdf|afdf abag|fgef dcdB|AFGE D2 Ac:||
